X:311
T:Jesus, Tender Shepherd, Hear Me
%%stretchlast false
M:4/4
L:1/4
K:F clef=C1
"^I"[F,CAc] [F,CAc] "^iii²"[E,CAc] "^V7¹"[E,CGB] | "^I"[F,CFA] "^I¹"[A,CFA] "^I²"[CFA] "^V7³"[B,CEG] | "^I¹"[A,CF] "^V²"[G,CEG] "^I"[F,CFA] [F,CFA] | "^V¹"[E,CGc]/ "^V7¹"[E,CGB]/ "^I"[F,CFA] "^V"[CEG] "^vii°²"[B,EG] | "^I¹"[A,CFc] "^I"[F,A,Fc] "^V¹"[E,G,Gc] "^V7"[C,G,EB] | "^I"[F,A,FA] "^vi"[D,A,FA] "^III+¹"[_D,A,FA] "^iii7"[A,,A,EG] | "^vi"[D,A,F] "^II7²"[D,=B,FG] "^I²"[C,CFA] [C,F,FA] | "^V7"[C,G,EB] [C,B,CE] "^I"[F,A,CF]2 |]
